X:343
T:Recovery,The. JaW.343
M:2/4
L:1/8
Q:1/4=100
S:James Winder Ms, Lancashire, 1835-41
R:.Country Dance
O:England
A:Wyresdale,Lancashire
Z:vmp.Chris Partington, Aug 2004
K:C
GcGc|(d/c/d/e/) dd|gfdB |(c/B/c/d/) cc|!
GcGc|(d/c/d/e/) dd|gfdB|cec2:|!
|:gf”sic”eB|cecG|FF (F/E/F/G/)|(F2E)z|!
gfdB|cecG|FE/F/ G/F/E/D/|C2z2:|!
|:ee/e/ ee|e3f|edcB c/B/c/d/ e2|!
dd/d/ dd|d3e|dcBA|G2z2:|

